assets/icons/standard/contact_list.svg

<?xml version="1.0"?><svg xmlns="http://www.w3.org/2000/svg" width="100" height="100" viewBox="0 0 100 100"><path fill="#fff" d="m26.3 22.7c-4.5 0-8.2 3.5-8.2 7.8v44.3c0 4.3 3.7 7.8 8.2 7.8h43.6c4.5 0 8.2-3.5 8.2-7.8v-44.3c0-4.3-3.7-7.8-8.2-7.8h-43.6z m10.9 18.2c0 1.4-1.2 2.6-2.7 2.6h-2.7c-1.5 0-2.7-1.2-2.7-2.6v-2.6c0-1.4 1.2-2.6 2.7-2.6h2.7c1.5 0 2.7 1.2 2.7 2.6v2.6z m30 0c0 1.4-1.2 2.6-2.7 2.6h-19.1c-1.5 0-2.7-1.2-2.7-2.6v-2.6c0-1.4 1.2-2.6 2.7-2.6h19.1c1.5 0 2.7 1.2 2.7 2.6v2.6z m-30 13.1c0 1.4-1.2 2.6-2.7 2.6h-2.7c-1.5 0-2.7-1.2-2.7-2.6v-2.6c0-1.4 1.2-2.6 2.7-2.6h2.7c1.5 0 2.7 1.2 2.7 2.6v2.6z m25 0c0 1.4-1.2 2.6-2.7 2.6h-14.1c-1.5 0-2.7-1.2-2.7-2.6v-2.6c0-1.4 1.2-2.6 2.7-2.6h14.1c1.5 0 2.7 1.2 2.7 2.6v2.6z m-25 13c0 1.4-1.2 2.6-2.7 2.6h-2.7c-1.5 0-2.7-1.2-2.7-2.6v-2.6c0-1.4 1.2-2.6 2.7-2.6h2.7c1.5 0 2.7 1.2 2.7 2.6v2.6z m30 0c0 1.4-1.2 2.6-2.7 2.6h-19.1c-1.5 0-2.7-1.2-2.7-2.6v-2.6c0-1.4 1.2-2.6 2.7-2.6h19.1c1.5 0 2.7 1.2 2.7 2.6v2.6z"></path></svg>

<svg xmlns="http://www.w3.org/2000/svg" x="0px" y="0px"
	 width="100px" height="100px" viewBox="0 0 100 100" enable-background="new 0 0 100 100" xml:space="preserve">
<path fill="#FFFFFF" d="M26.3,22.7c-4.5,0-8.2,3.5-8.2,7.8v44.3c0,4.3,3.7,7.8,8.2,7.8h43.6c4.5,0,8.2-3.5,8.2-7.8V30.5
	c0-4.3-3.7-7.8-8.2-7.8H26.3z M37.2,40.9c0,1.4-1.2,2.6-2.7,2.6h-2.7c-1.5,0-2.7-1.2-2.7-2.6v-2.6c0-1.4,1.2-2.6,2.7-2.6h2.7
	c1.5,0,2.7,1.2,2.7,2.6V40.9z M67.2,40.9c0,1.4-1.2,2.6-2.7,2.6H45.4c-1.5,0-2.7-1.2-2.7-2.6v-2.6c0-1.4,1.2-2.6,2.7-2.6h19.1
	c1.5,0,2.7,1.2,2.7,2.6V40.9z M37.2,54c0,1.4-1.2,2.6-2.7,2.6h-2.7c-1.5,0-2.7-1.2-2.7-2.6v-2.6c0-1.4,1.2-2.6,2.7-2.6h2.7
	c1.5,0,2.7,1.2,2.7,2.6V54z M62.2,54c0,1.4-1.2,2.6-2.7,2.6H45.4c-1.5,0-2.7-1.2-2.7-2.6v-2.6c0-1.4,1.2-2.6,2.7-2.6h14.1
	c1.5,0,2.7,1.2,2.7,2.6V54z M37.2,67c0,1.4-1.2,2.6-2.7,2.6h-2.7c-1.5,0-2.7-1.2-2.7-2.6v-2.6c0-1.4,1.2-2.6,2.7-2.6h2.7
	c1.5,0,2.7,1.2,2.7,2.6V67z M67.2,67c0,1.4-1.2,2.6-2.7,2.6H45.4c-1.5,0-2.7-1.2-2.7-2.6v-2.6c0-1.4,1.2-2.6,2.7-2.6h19.1
	c1.5,0,2.7,1.2,2.7,2.6V67z"/>
</svg>
